src/img/ic_medium.svg

<svg height="32" viewBox="0 0 32 32" width="32" xmlns="http://www.w3.org/2000/svg"><path d="m0 0h32v32h-32z" fill="none"/><path d="m28.823-8.158-2.143 2.058a.629.629 0 0 0 -.241.6v15.11a.614.614 0 0 0 .241.6l2.1 2.054v.455h-10.538v-.439l2.17-2.107c.214-.214.214-.277.214-.6v-12.222l-6.036 15.322h-.812l-7.027-15.322v10.268a1.412 1.412 0 0 0 .392 1.181l2.821 3.42v.455h-8.017v-.455l2.821-3.42a1.367 1.367 0 0 0 .366-1.179v-11.877a1.019 1.019 0 0 0 -.334-.875l-2.514-3.027v-.455h7.795l6.019 13.213 5.294-13.2h7.429z" fill="#91929e" transform="translate(.678 13.601)"/></svg>

<svg id="ic_medium" xmlns="http://www.w3.org/2000/svg" width="32" height="32" viewBox="0 0 32 32">
  <rect id="bg" width="32" height="32" fill="none"/>
  <path id="Path_1562" data-name="Path 1562" d="M28.823-8.158,26.68-6.1a.629.629,0,0,0-.241.6V9.61a.614.614,0,0,0,.241.6l2.1,2.054v.455H18.242V12.28l2.17-2.107c.214-.214.214-.277.214-.6V-2.649L14.59,12.673h-.812L6.751-2.649V7.619A1.412,1.412,0,0,0,7.143,8.8l2.821,3.42v.455H1.947v-.455L4.768,8.8a1.367,1.367,0,0,0,.366-1.179V-4.256A1.019,1.019,0,0,0,4.8-5.131L2.286-8.158v-.455h7.795L16.1,4.6,21.394-8.6h7.429Z" transform="translate(0.678 13.601)" fill="#91929e"/>
</svg>
